usr/share/icons/biglinux-icons-material/16/actions/im-kick-user.svg

<svg xmlns="http://www.w3.org/2000/svg" viewBox="0 0 16 16">
  <defs id="defs3051">
    <style type="text/css" id="current-color-scheme">
      .ColorScheme-Text {
        color:#363636;
      }
      .ColorScheme-NegativeText {
        color:#da4453;
      }
      </style>
  </defs>
  <path
     style="fill:currentColor;fill-opacity:1;stroke:none" 
     class="ColorScheme-NegativeText"
    d="M 8 2 C 6.343 2 5 3.343 5 5 C 5 6.657 6.343 8 8 8 C 9.657 8 11 6.657 11 5 C 11 3.343 9.657 2 8 2 z M 6.0507812 4.5 L 10.050781 4.5 L 10.050781 5.5 L 6.0507812 5.5 L 6.0507812 4.5 z M 8 9 C 5.239 9 3 11.01 3 13.5 C 3.001 13.667 3.0122031 13.834 3.0332031 14 L 12.962891 14 C 12.985891 13.834 12.998 13.667 13 13.5 C 13 11.015 10.761 9 8 9 z M 8 10 C 9.987 10.002 11.671078 11.279 11.955078 13 L 4.0449219 13 C 4.3289219 11.279 6.013 10.002 8 10 z "
        />
</svg>

<svg xmlns="http://www.w3.org/2000/svg" viewBox="0 0 16 16"><defs id="defs3051"><style id="current-color-scheme" type="text/css">.ColorScheme-Text{color:#dedede}</style></defs><path d="M8 2a3 3 0 1 0 0 6 3 3 0 0 0 0-6zM6.05 4.5h4v1h-4v-1zM8 9c-2.761 0-5 2.01-5 4.5.001.167.012.334.033.5h9.93a3.99 3.99 0 0 0 .037-.5C13 11.015 10.761 9 8 9zm0 1c1.987.002 3.671 1.279 3.955 3h-7.91c.284-1.721 1.968-2.998 3.955-3z" style="fill:currentColor;fill-opacity:1;stroke:none;color:#da4453"/></svg>
